Yaru++/actions/symbolic/document-open-symbolic.svg

<svg height="16" width="16" xmlns="http://www.w3.org/2000/svg">
  <path d="m3.994 1c-1.258.015-2.179-.029-2.932.387a1.878 1.878 0 0 0 -.84.996c-.164.438-.222.96-.222 1.617v8c0 .658.058 1.179.223 1.617.164.439.463.79.84.998.526.29 1.188.342 1.937.36v-1.014c-.666-.032-1.204-.085-1.453-.223-.184-.1-.29-.212-.387-.472s-.16-.674-.16-1.266v-8c0-.592.063-1.006.16-1.266.098-.26.203-.371.387-.472.367-.203 1.195-.247 2.459-.262h2.53l2.02 2h3.436c1.264.015 2.092.06 2.46.262.183.1.288.212.386.472s.162.674.162 1.266v6c0 .592-.063 1.006-.16 1.266-.098.26-.203.371-.387.472-.104.057-.273.093-.453.127v-8.865h-10v11h10v-1.088c.34-.053.654-.14.937-.297a1.88 1.88 0 0 0 .838-.998c.165-.438.225-.96.225-1.617v-6c0-.658-.06-1.179-.225-1.617a1.88 1.88 0 0 0 -.837-.998c-.753-.416-1.674-.37-2.932-.385h-3.039l-2.022-2h-2.949zm1.006 5h8v9h-8zm1.008 1v1h6.012v-1zm0 2v1h6.012v-1zm-.008 2v1h3v-1z" fill="#808080"/>
</svg>

<svg height="16" width="16" xmlns="http://www.w3.org/2000/svg">
    <path d="M3.994 1c-1.258.015-2.179-.029-2.932.387a1.878 1.878 0 0 0-.84.996C.058 2.821 0 3.343 0 4v8c0 .658.058 1.179.223 1.617.164.439.463.79.84.998.526.29 1.188.342 1.937.36v-1.014c-.666-.032-1.204-.085-1.453-.223-.184-.1-.29-.212-.387-.472C1.063 13.006 1 12.592 1 12V4c0-.592.063-1.006.16-1.266.098-.26.203-.371.387-.472.367-.203 1.195-.247 2.459-.262h2.53l2.02 2h3.436c1.264.015 2.092.06 2.46.262.183.1.288.212.386.472.098.26.162.674.162 1.266v6c0 .592-.063 1.006-.16 1.266-.098.26-.203.371-.387.472-.104.057-.273.093-.453.127V5H4v11h10v-1.088c.34-.053.654-.14.937-.297a1.88 1.88 0 0 0 .838-.998c.165-.438.225-.96.225-1.617V6c0-.658-.06-1.179-.225-1.617a1.88 1.88 0 0 0-.837-.998c-.753-.416-1.674-.37-2.932-.385H8.967L6.945 1H3.996zM5 6h8v9H5zm1.008 1v1h6.012V7zm0 2v1h6.012V9zM6 11v1h3v-1z" fill="gray" font-family="sans-serif" font-weight="400" overflow="visible" style="line-height:normal;font-variant-ligatures:none;font-variant-position:normal;font-variant-caps:normal;font-variant-numeric:normal;font-variant-alternates:normal;font-feature-settings:normal;text-indent:0;text-align:start;text-decoration-line:none;text-decoration-style:solid;text-decoration-color:#000;text-transform:none;shape-padding:0;isolation:auto;mix-blend-mode:normal;marker:none" white-space="normal" color="#000"/>
</svg>
